; HEADER_BLOCK_START
; generated by OrcaSlicer 2.3.1 on 2025-11-25 at 09:53:25
; total layer number: 98
; filament_density: 1.24
; filament_diameter: 1.75
; max_z_height: 18.00
; HEADER_BLOCK_END

; THUMBNAIL_BLOCK_START

;
; THUMBNAIL_BLOCK_END

; THUMBNAIL_BLOCK_START

;
; THUMBNAIL_BLOCK_END

; external perimeters extrusion width = 0.40mm
; perimeters extrusion width = 0.45mm
; infill extrusion width = 0.45mm
; solid infill extrusion width = 0.40mm
; top infill extrusion width = 0.40mm
; support material extrusion width = 0.40mm
; first layer extrusion width = 0.50mm

; EXECUTABLE_BLOCK_START
M73 P0 R58
M201 X500 Y500 Z500 E5000
M203 X500 Y500 Z10 E60
M204 P500 R1000 T500
M205 X8.00 Y8.00 Z0.40 E5.00 ; sets the jerk limits, mm/sec
;TYPE:Custom
G90 ; use absolute coordinates
M83 ; extruder relative mode
M140 S60 ; set final bed temp
M104 S150 ; set temporary nozzle temp to prevent oozing during homing
G4 S10 ; allow partial nozzle warmup
G28 ; home all axis
G1 Z50 F240
G1 X2 Y10 F3000
M104 S220 ; set final nozzle temp
M190 S60 ; wait for bed temp to stabilize
M109 S220 ; wait for nozzle temp to stabilize
G1 Z0.28 F240
G92 E0
G1 Y140 E10 F1500 ; prime the nozzle
M73 P0 R57
G1 X2.3 F5000
G92 E0
G1 Y10 E10 F1200 ; prime the nozzle
G92 E0
G90
G21
M83 ; use relative distances for extrusion
; filament start gcode
M106 S0
;LAYER_CHANGE
;Z:0.2
;HEIGHT:0.2
;BEFORE_LAYER_CHANGE
;0.2
G92 E0

G1 E-5 F3600
M73 P1 R57
;_SET_FAN_SPEED_CHANGING_LAYER
M204 S500
; printing object motor_mount-Body.stl id:1124451817 copy 0
G1 Z.6 F9000
G1 X88.243 Y101.417
G1 Z.6
G1 Z.2
G1 E5 F2400
;TYPE:Support
;WIDTH:0.5
G1 F900
G1 X88.243 Y129.269 E1.03739
G1 X88.712 Y128.789 E.02501
G1 X88.712 Y126.14 E.09866
G1 X88.751 Y126.1 E.00207
G1 X88.751 Y104.881 E.79033
G1 X89.202 Y105.343 E.02405
G1 X89.259 Y105.344 E.00212
G1 X89.259 Y125.636 E.75581
G1 X89.767 Y125.624 E.01892
G1 X89.767 Y105.357 E.75488
G1 X90.275 Y105.379 E.01893
G1 X90.275 Y125.602 E.7532
G1 X90.783 Y125.553 E.019
G1 X90.783 Y105.427 E.74962
G1 X91.291 Y105.502 E.01912
G1 X91.291 Y125.479 E.74409
G1 X91.799 Y125.379 E.01928
G1 X91.799 Y105.602 E.73659
G1 X92.306 Y105.73 E.01951
G1 X92.306 Y125.25 E.72705
G1 X92.814 Y125.094 E.01979
G1 X92.814 Y105.887 E.71539
G1 X93.322 Y106.073 E.02015
G1 X93.322 Y124.908 E.70152
G1 X93.83 Y124.69 E.02058
G1 X93.83 Y106.291 E.68532
G1 X94.338 Y106.541 E.0211
G1 X94.338 Y124.439 E.66663
G1 X94.846 Y124.148 E.0218
G1 X94.846 Y106.832 E.64496
G1 X95.354 Y107.164 E.0226
G1 X95.354 Y123.816 E.62022
G1 X95.861 Y123.44 E.02355
G1 X95.861 Y107.541 E.59218
G1 X96.369 Y107.967 E.02469
G1 X96.369 Y123.285 E.57055
G1 E-3.5 F3600
;WIPE_START
G1 F900
G1 X96.369 Y122.285 E-1.5
;WIPE_END
G1 Z.6 F9000
G1 X89.124 Y102.025 Z.6
G1 Z.2
G1 E5 F2400
G1 F900
G1 X89.124 Y104.674 E.09866
G1 X89.38 Y104.936 E.01365
G1 X90.09 Y104.953 E.02648
G1 X90.606 Y104.991 E.01925
G1 X91.119 Y105.054 E.01925
G1 X91.628 Y105.142 E.01925
G1 X92.132 Y105.255 E.01925
G1 X92.63 Y105.393 E.01925
G1 X93.122 Y105.555 E.0193
G1 X93.606 Y105.741 E.01929
G1 X94.079 Y105.951 E.01929
G1 X94.542 Y106.184 E.0193
G1 X94.993 Y106.439 E.0193
G1 X95.431 Y106.716 E.0193
G1 X95.855 Y107.014 E.0193
G1 X96.263 Y107.332 E.0193
G1 X96.656 Y107.671 E.01929
G1 X97.217 Y108.223 E.02933
G1 X97.217 Y122.758 E.54137
G1 X96.656 Y123.31 E.02933
G1 X96.263 Y123.648 E.01929
G1 X95.855 Y123.967 E.0193
G1 X95.431 Y124.265 E.0193
G1 X94.993 Y124.542 E.0193
G1 X94.542 Y124.797 E.0193
G1 X94.079 Y125.03 E.0193
G1 X93.606 Y125.239 E.01929
G1 X93.122 Y125.426 E.01929
G1 X92.63 Y125.588 E.0193
G1 X92.132 Y125.725 E.01925
G1 X91.628 Y125.838 E.01925
G1 X91.119 Y125.927 E.01925
G1 X90.606 Y125.99 E.01925
G1 X90.09 Y126.028 E.01925
G1 X89.38 Y126.045 E.02648
G1 X89.124 Y126.307 E.01365
G1 X89.124 Y128.956 E.09866
G1 X87.646 Y130.471 E.07882
G1 X87.646 Y100.51 E1.11592
G1 X89.076 Y101.976 E.07627
G1 E-3.5 F3600
;WIPE_START
G1 F900
G1 X88.378 Y101.26 E-1.5
;WIPE_END
G1 Z.6 F9000
G1 X95.861 Y136.468 Z.6
G1 Z.2
G1 E5 F2400
G1 F900
G1 X95.861 Y137.007 E.02008
G1 X96.369 Y137.007 E.01892
G1 X96.369 Y136.352 E.02441
G1 X96.877 Y136.352 E.01892
G1 X96.877 Y137.007 E.02441
G1 X97.385 Y137.007 E.01892
G1 X97.385 Y136.352 E.02441
G1 X97.893 Y136.352 E.01892
G1 X97.893 Y137.007 E.02441
G1 X98.401 Y137.007 E.01892
G1 X98.401 Y136.352 E.02441
G1 X98.909 Y136.352 E.01892
G1 X98.909 Y137.007 E.02441
G1 X99.417 Y137.007 E.01892
G1 X99.417 Y135.872 E.04229
G1 X99.448 Y134.986 E.033
G1 X99.486 Y134.484 E.01878
G1 X99.548 Y133.983 E.01878
G1 X99.635 Y133.487 E.01878
G1 X99.747 Y132.995 E.01878
G1 X99.924 Y132.388 E.02355
G1 X99.924 Y137.007 E.17204
G1 X100.432 Y137.007 E.01892
G1 X100.432 Y131.107 E.21974
G1 X100.666 Y130.649 E.01918
G1 X100.94 Y130.178 E.02029
G1 X100.94 Y137.007 E.25437
G1 X101.448 Y137.007 E.01892
M73 P2 R57
G1 X101.448 Y129.43 E.28221
G1 X101.956 Y128.806 E.02999
G1 X101.956 Y137.007 E.30547
G1 X102.464 Y137.007 E.01892
G1 X102.464 Y128.265 E.32563
G1 X102.972 Y128.259 E.01892
G1 X102.972 Y137.007 E.32584
G1 X103.479 Y137.007 E.01892
G1 X103.479 Y128.259 E.32584
G1 X103.987 Y128.259 E.01892
G1 X103.987 Y137.007 E.32584
G1 X104.495 Y137.007 E.01892
G1 X104.495 Y128.259 E.32584
G1 X105.003 Y128.259 E.01892
G1 X105.003 Y137.007 E.32584
G1 X105.511 Y137.007 E.01892
G1 X105.511 Y128.259 E.32584
G1 X106.019 Y128.259 E.01892
G1 X106.019 Y137.007 E.32584
G1 X106.527 Y137.007 E.01892
G1 X106.527 Y128.259 E.32584
G1 X107.034 Y128.259 E.01892
G1 X107.034 Y137.007 E.32584
G1 X107.542 Y137.007 E.01892
G1 X107.542 Y128.259 E.32584
G1 X108.05 Y128.259 E.01892
M73 P2 R56
G1 X108.05 Y137.007 E.32584
G1 X108.558 Y137.007 E.01892
G1 X108.558 Y128.259 E.32584
G1 X109.066 Y128.259 E.01892
G1 X109.066 Y137.007 E.32584
G1 X109.574 Y137.007 E.01892
G1 X109.574 Y128.259 E.32584
G1 X110.082 Y128.259 E.01892
G1 X110.082 Y137.007 E.32584
G1 X110.59 Y137.007 E.01892
G1 X110.59 Y128.259 E.32584
G1 X111.097 Y128.259 E.01892
G1 X111.097 Y137.007 E.32584
G1 X111.605 Y137.007 E.01892
G1 X111.605 Y128.259 E.32584
G1 X112.113 Y128.259 E.01892
G1 X112.113 Y137.007 E.32584
G1 X112.621 Y137.007 E.01892
G1 X112.621 Y128.259 E.32584
G1 X113.129 Y128.259 E.01892
G1 X113.129 Y137.007 E.32584
G1 X113.637 Y137.007 E.01892
G1 X113.637 Y128.259 E.32584
G1 X114.145 Y128.259 E.01892
G1 X114.145 Y137.007 E.32584
G1 X114.652 Y137.007 E.01892
G1 X114.652 Y128.259 E.32584
G1 X115.16 Y128.259 E.01892
G1 X115.16 Y137.007 E.32584
G1 X115.668 Y137.007 E.01892
G1 X115.668 Y128.259 E.32584
G1 X116.176 Y128.259 E.01892
G1 X116.176 Y137.007 E.32584
G1 X116.684 Y137.007 E.01892
G1 X116.684 Y128.265 E.32563
G1 X117.192 Y128.806 E.02764
G1 X117.192 Y137.007 E.30547
G1 X117.7 Y137.007 E.01892
G1 X117.7 Y129.43 E.28221
G1 X118.208 Y130.178 E.03366
G1 X118.208 Y137.007 E.25437
G1 X118.715 Y137.007 E.01892
G1 X118.715 Y131.107 E.21974
G1 X118.919 Y131.56 E.01847
G1 X119.223 Y132.388 E.03288
G1 X119.223 Y137.007 E.17204
G1 X119.731 Y137.007 E.01892
G1 X119.731 Y135.872 E.04229
G1 X120.239 Y136.352 E.02603
G1 X120.239 Y137.007 E.02441
G1 X120.747 Y137.007 E.01892
G1 X120.747 Y136.352 E.02441
G1 X121.255 Y136.352 E.01892
G1 X121.255 Y137.007 E.02441
G1 X121.763 Y137.007 E.01892
G1 X121.763 Y136.352 E.02441
G1 X122.27 Y136.352 E.01892
G1 X122.27 Y137.007 E.02441
G1 X122.778 Y137.007 E.01892
G1 X122.778 Y136.352 E.02441
G1 X122.873 Y136.352 E.00351
G1 X123.286 Y136.755 E.02152
G1 X123.286 Y137.213 E.01704
G1 E-3.5 F3600
;WIPE_START
G1 F900
G1 X123.286 Y136.755 E-.68621
G1 X122.898 Y136.376 E-.81379
;WIPE_END
G1 Z.6 F9000
G1 X116.946 Y127.944 Z.6
G1 Z.2
G1 E5 F2400
G1 F900
G1 X117.313 Y128.321 E.01959
G1 X117.661 Y128.716 E.01959
G1 X117.988 Y129.127 E.01959
G1 X118.295 Y129.554 E.01959
G1 X118.58 Y129.996 E.01959
G1 X118.843 Y130.452 E.01959
G1 X119.082 Y130.92 E.01959
G1 X119.298 Y131.4 E.01959
G1 X119.49 Y131.89 E.01959
G1 X119.657 Y132.389 E.01959
G1 X119.799 Y132.894 E.01954
G1 X119.916 Y133.405 E.01954
G1 X120.006 Y133.922 E.01954
G1 X120.072 Y134.443 E.01954
G1 X120.111 Y134.966 E.01954
G1 X120.129 Y135.685 E.02678
G1 X120.391 Y135.94 E.01364
G1 X123.04 Y135.94 E.09868
G1 X124.555 Y137.418 E.07884
G1 X94.592 Y137.418 E1.116
G1 X96.108 Y135.94 E.07884
G1 X98.757 Y135.94 E.09868
G1 X99.019 Y135.685 E.01364
G1 X99.037 Y134.966 E.02678
G1 X99.076 Y134.443 E.01954
G1 X99.141 Y133.922 E.01954
G1 X99.232 Y133.405 E.01954
G1 X99.349 Y132.894 E.01954
G1 X99.49 Y132.389 E.01954
G1 X99.658 Y131.89 E.01959
G1 X99.849 Y131.4 E.01959
G1 X100.065 Y130.92 E.01959
G1 X100.305 Y130.452 E.01959
G1 X100.568 Y129.996 E.01959
G1 X100.853 Y129.554 E.01959
G1 X101.159 Y129.127 E.01959
G1 X101.487 Y128.716 E.01959
G1 X101.835 Y128.321 E.01959
G1 X102.306 Y127.847 E.02487
G1 X116.842 Y127.847 E.54143
G1 X116.896 Y127.897 E.00273
G1 E-3.5 F3600
;WIPE_START
G1 F900
G1 X116.842 Y127.847 E-.11011
G1 X115.915 Y127.847 E-1.38989
;WIPE_END
G1 Z.6 F9000
G1 X130.904 Y129.565 Z.6
G1 Z.2
G1 E5 F2400
G1 F900
G1 X130.904 Y101.711 E1.03744
G1 X130.435 Y102.192 E.02502
G1 X130.435 Y104.841 E.09868
G1 X130.396 Y104.881 E.00207
G1 X130.396 Y126.1 E.79034
G1 X129.946 Y125.638 E.02404
G1 X129.888 Y125.637 E.00213
G1 X129.888 Y105.344 E.75581
G1 X129.381 Y105.357 E.01892
G1 X129.381 Y125.624 E.75487
G1 X128.873 Y125.602 E.01893
M73 P3 R56
G1 X128.873 Y105.379 E.7532
G1 X128.365 Y105.427 E.019
G1 X128.365 Y125.553 E.74961
G1 X127.857 Y125.479 E.01912
G1 X127.857 Y105.502 E.74409
G1 X127.349 Y105.602 E.01928
G1 X127.349 Y125.378 E.73658
G1 X126.841 Y125.25 E.01951
G1 X126.841 Y105.731 E.72703
G1 X126.333 Y105.887 E.0198
G1 X126.333 Y125.094 E.71536
G1 X125.826 Y124.907 E.02015
G1 X125.826 Y106.074 E.70147
G1 X125.318 Y106.292 E.02058
G1 X125.318 Y124.689 E.68524
G1 X124.81 Y124.438 E.02111
G1 X124.81 Y106.543 E.6665
G1 X124.302 Y106.831 E.02174
G1 X124.302 Y124.15 E.64507
G1 X123.794 Y123.818 E.02261
G1 X123.794 Y107.163 E.62031
G1 X123.286 Y107.541 E.02358
G1 X123.286 Y123.439 E.59214
G1 X122.778 Y123.011 E.02475
G1 X122.778 Y107.696 E.57043
G1 X131.502 Y130.403 F9000
G1 F900
G1 X131.502 Y100.509 E1.11344
G1 X130.024 Y102.024 E.07884
G1 X130.024 Y104.674 E.09868
G1 X129.768 Y104.936 E.01364
G1 X129.049 Y104.954 E.02678
G1 X128.526 Y104.993 E.01954
G1 X128.005 Y105.058 E.01954
G1 X127.489 Y105.149 E.01954
G1 X126.977 Y105.265 E.01954
G1 X126.472 Y105.407 E.01954
G1 X125.973 Y105.574 E.01959
G1 X125.483 Y105.766 E.01959
G1 X125.004 Y105.982 E.01959
G1 X124.536 Y106.221 E.01959
G1 X124.08 Y106.484 E.01959
G1 X123.638 Y106.769 E.01959
G1 X123.21 Y107.076 E.01959
G1 X122.799 Y107.403 E.01959
G1 X122.404 Y107.751 E.01959
G1 X121.931 Y108.222 E.02487
G1 X121.931 Y122.759 E.54143
G1 X122.404 Y123.23 E.02487
G1 X122.799 Y123.577 E.01959
G1 X123.21 Y123.905 E.01959
G1 X123.638 Y124.212 E.01959
G1 X124.08 Y124.497 E.01959
G1 X124.536 Y124.759 E.01959
G1 X125.004 Y124.999 E.01959
G1 X125.483 Y125.215 E.01959
G1 X125.973 Y125.407 E.01959
G1 X126.472 Y125.574 E.01959
G1 X126.977 Y125.716 E.01954
G1 X127.489 Y125.832 E.01954
G1 X128.005 Y125.923 E.01954
G1 X128.526 Y125.988 E.01954
G1 X129.049 Y126.027 E.01954
G1 X129.768 Y126.045 E.02678
G1 X130.024 Y126.307 E.01364
G1 X130.024 Y128.957 E.09868
G1 X131.502 Y130.472 E.07884
G1 E-3.5 F3600
;WIPE_START
G1 F900
G1 X130.804 Y129.756 E-1.5
;WIPE_END
G1 Z.6 F9000
G1 X113.681 Y122.779 Z.6
G1 Z.2
G1 E5 F2400
;TYPE:Inner wall
;WIDTH:0.499999
G1 F900
G1 X113.719 Y122.979 E.00757
G1 X113.919 Y123.467 E.01965
G1 X114.232 Y123.932 E.02085
;WIDTH:0.535677
G1 X114.434 Y124.149 E.01193
;WIDTH:0.571354
G1 X114.636 Y124.367 E.01279
G1 X114.473 Y124.314 E.00739
;WIDTH:0.540475
G1 X113.95 Y124.12 E.0226
;WIDTH:0.499999
G1 X113.401 Y123.923 E.02175
G1 X112.8 Y123.741 E.02336
G1 X112.126 Y123.578 E.02583
G1 X111.62 Y123.479 E.0192
G1 X110.963 Y123.387 E.02472
G1 X110.307 Y123.33 E.02451
G1 X109.702 Y123.308 E.02257
G1 X109.19 Y123.312 E.01907
G1 X108.535 Y123.351 E.02444
G1 X108.02 Y123.405 E.01926
G1 X107.42 Y123.497 E.02263
G1 X106.825 Y123.619 E.02263
G1 X106.237 Y123.771 E.02263
;WIDTH:0.51417
G1 X105.654 Y123.945 E.02334
;WIDTH:0.546644
G1 X105.058 Y124.148 E.02584
G1 X104.526 Y124.397 E.02411
;WIDTH:0.50613
G1 X103.981 Y124.665 E.02293
;WIDTH:0.499999
G1 X103.448 Y124.957 E.02263
G1 X102.931 Y125.275 E.02263
G1 X102.422 Y125.625 E.02298
G1 X101.8 Y126.11 E.02939
G1 X101.351 Y126.502 E.02221
G1 X100.92 Y126.915 E.02222
G1 X100.51 Y127.35 E.02224
G1 X100.122 Y127.804 E.02225
G1 X99.756 Y128.276 E.02226
G1 X99.414 Y128.767 E.02227
G1 X99.097 Y129.273 E.02227
G1 X98.804 Y129.795 E.02227
G1 X98.537 Y130.33 E.02227
G1 X98.297 Y130.877 E.02227
G1 X98.085 Y131.436 E.02226
G1 X97.919 Y131.935 E.01958
G1 X97.757 Y132.519 E.02257
G1 X97.623 Y133.11 E.02257
G1 X97.52 Y133.707 E.02257
G1 X97.446 Y134.305 E.02243
G1 X92.645 Y134.305 E.17881
G1 X92.121 Y134.24 E.01969
G1 X91.648 Y134.034 E.0192
G1 X91.244 Y133.715 E.01919
G1 X90.965 Y133.318 E.01805
G1 X90.857 Y133.024 E.01169
G1 X90.759 Y132.461 E.02127
G1 X90.759 Y127.653 E.17909
G1 X90.794 Y127.615 E.00192
G1 X91.386 Y127.54 E.02223
G1 X91.974 Y127.437 E.02223
G1 X92.556 Y127.305 E.02223
G1 X93.302 Y127.089 E.02893
G1 X93.776 Y126.926 E.01868
G1 X94.803 Y126.497 E.04146
G1 X95.337 Y126.227 E.02229
G1 X95.857 Y125.931 E.02229
G1 X96.362 Y125.61 E.02229
G1 X96.851 Y125.264 E.02229
G1 X97.349 Y124.872 E.02361
G1 X97.778 Y124.499 E.02118
G1 X98.218 Y124.078 E.0227
G1 X98.636 Y123.636 E.02265
G1 X99.047 Y123.152 E.02363
G1 X99.376 Y122.73 E.01994
G1 X99.755 Y122.183 E.02477
G1 X100.038 Y121.734 E.0198
G1 X100.332 Y121.212 E.02229
G1 X100.6 Y120.677 E.02229
;WIDTH:0.525725
G1 X100.733 Y120.408 E.01181
;WIDTH:0.551451
G1 X100.865 Y120.139 E.01243
G1 X101.079 Y119.579 E.02485
;WIDTH:0.549197
G1 X101.242 Y119.002 E.02471
;WIDTH:0.499999
G1 X101.4 Y118.425 E.02229
G1 X101.53 Y117.841 E.02229
G1 X101.631 Y117.251 E.02229
G1 X101.703 Y116.657 E.02229
G1 X101.747 Y116.022 E.02372
G1 X101.759 Y115.462 E.02085
G1 X101.743 Y114.864 E.02229
G1 X101.698 Y114.268 E.02229
G1 X101.623 Y113.674 E.02229
G1 X101.519 Y113.085 E.02229
G1 X101.387 Y112.501 E.02229
G1 X101.226 Y111.925 E.02229
G1 X101.037 Y111.357 E.02229
G1 X100.82 Y110.799 E.02229
;WIDTH:0.546142
G1 X100.622 Y110.294 E.02226
G1 X101.026 Y110.729 E.02436
;WIDTH:0.499999
G1 X101.487 Y111.076 E.02148
G1 X101.986 Y111.308 E.02049
G1 X102.479 Y111.426 E.01888
G1 X102.931 Y111.441 E.01685
G1 X103.542 Y111.369 E.02293
G1 X104.064 Y111.172 E.02076
;WIDTH:0.548966
G1 X104.322 Y111.034 E.01206
;WIDTH:0.597933
G1 X104.579 Y110.896 E.01322
;WIDTH:0.600287
G1 X104.988 Y110.487 E.02625
G1 X105.072 Y110.321 E.00845
;WIDTH:0.551675
G1 X105.157 Y110.155 E.00772
;WIDTH:0.503063
G1 X105.384 Y109.672 E.02004
;WIDTH:0.499999
G1 X105.512 Y109.153 E.0199
G1 X105.533 Y108.554 E.02233
G1 X105.431 Y108.008 E.02067
G1 X105.232 Y107.521 E.01961
G1 X104.922 Y107.056 E.02081
;WIDTH:0.533496
G1 X104.721 Y106.837 E.01186
;WIDTH:0.566993
G1 X104.52 Y106.619 E.01267
G1 X104.675 Y106.667 E.00691
;WIDTH:0.538403
G1 X105.197 Y106.861 E.0225
;WIDTH:0.499999
G1 X105.746 Y107.058 E.02174
G1 X106.347 Y107.24 E.02335
G1 X107.02 Y107.403 E.02582
G1 X107.527 Y107.502 E.01921
G1 X108.184 Y107.594 E.02472
G1 X108.84 Y107.651 E.02454
G1 X109.959 Y107.669 E.04166
G1 X110.614 Y107.629 E.02444
G1 X111.117 Y107.578 E.01886
G1 X111.718 Y107.486 E.02263
G1 X112.313 Y107.364 E.02263
G1 X112.902 Y107.212 E.02266
;WIDTH:0.538171
G1 X113.488 Y107.05 E.02453
;WIDTH:0.546693
G1 X114.091 Y106.832 E.0263
;WIDTH:0.566401
G1 X114.626 Y106.616 E.02463
G1 X114.892 Y106.468 E.01298
;WIDTH:0.5332
G1 X115.158 Y106.321 E.01216
;WIDTH:0.499999
G1 X115.691 Y106.029 E.02263
G1 X116.209 Y105.711 E.02263
G1 X116.726 Y105.355 E.02339
G1 X117.255 Y104.948 E.02487
G1 X117.666 Y104.6 E.02004
G1 X118.11 Y104.186 E.02263
G1 X118.533 Y103.749 E.02263
G1 X118.934 Y103.292 E.02263
G1 X119.311 Y102.816 E.02263
G1 X119.664 Y102.322 E.02263
G1 X119.992 Y101.81 E.02263
G1 X120.294 Y101.283 E.02264
G1 X120.57 Y100.741 E.02263
G1 X120.818 Y100.186 E.02264
G1 X121.038 Y99.62 E.02264
G1 X121.226 Y99.055 E.02218
G1 X121.389 Y98.47 E.02263
G1 X121.523 Y97.877 E.02263
G1 X121.627 Y97.278 E.02263
