; HEADER_BLOCK_START
; generated by OrcaSlicer 2.3.1 on 2025-11-25 at 15:52:58
; total layer number: 400
; filament_density: 1.24
; filament_diameter: 1.75
; max_z_height: 80.00
; HEADER_BLOCK_END

; THUMBNAIL_BLOCK_START

;
; THUMBNAIL_BLOCK_END

; THUMBNAIL_BLOCK_START

;
; THUMBNAIL_BLOCK_END

; external perimeters extrusion width = 0.40mm
; perimeters extrusion width = 0.45mm
; infill extrusion width = 0.45mm
; solid infill extrusion width = 0.40mm
; top infill extrusion width = 0.40mm
; support material extrusion width = 0.40mm
; first layer extrusion width = 0.50mm

; EXECUTABLE_BLOCK_START
M73 P0 R98
M201 X500 Y500 Z500 E5000
M203 X500 Y500 Z10 E60
M204 P500 R1000 T500
M205 X8.00 Y8.00 Z0.40 E5.00 ; sets the jerk limits, mm/sec
;TYPE:Custom
G90 ; use absolute coordinates
M83 ; extruder relative mode
M140 S60 ; set final bed temp
M104 S150 ; set temporary nozzle temp to prevent oozing during homing
G4 S10 ; allow partial nozzle warmup
G28 ; home all axis
G1 Z50 F240
G1 X2 Y10 F3000
M104 S220 ; set final nozzle temp
M190 S60 ; wait for bed temp to stabilize
M109 S220 ; wait for nozzle temp to stabilize
G1 Z0.28 F240
G92 E0
G1 Y140 E10 F1500 ; prime the nozzle
G1 X2.3 F5000
G92 E0
G1 Y10 E10 F1200 ; prime the nozzle
G92 E0
G90
G21
M83 ; use relative distances for extrusion
; filament start gcode
M106 S0
;LAYER_CHANGE
;Z:0.2
;HEIGHT:0.2
;BEFORE_LAYER_CHANGE
;0.2
G92 E0

G1 E-5 F3600
;_SET_FAN_SPEED_CHANGING_LAYER
M204 S500
; printing object tailfin_connector_v1-Body.stl id:3152 copy 0
G1 Z.6 F9000
G1 X106.953 Y94.334
G1 Z.6
G1 Z.2
G1 E5 F2400
;TYPE:Support
;WIDTH:0.5
G1 F900
G1 X106.953 Y96.303 E.07336
G1 X107.045 Y96.661 E.01376
G1 X107.369 Y97.336 E.02788
G1 X107.461 Y97.443 E.00526
G1 X107.461 Y93.855 E.13365
G1 X107.862 Y93.383 E.02305
G1 X107.969 Y93.301 E.00504
G1 X107.969 Y97.704 E.16399
G1 X108.361 Y98.096 E.02069
G1 X108.361 Y98.277 E.00673
G1 X108.476 Y98.35 E.00507
G1 X108.476 Y92.948 E.2012
G1 X108.562 Y92.894 E.00376
G1 X108.984 Y92.739 E.01677
G1 X108.984 Y98.559 E.21678
G1 X109.266 Y98.664 E.0112
M73 P0 R97
G1 X109.492 Y98.686 E.00845
G1 X109.492 Y92.61 E.2263
G1 X110 Y92.562 E.019
G1 X110 Y98.737 E.22998
G1 X110.508 Y98.676 E.01905
G1 X110.508 Y92.622 E.22546
G1 X110.866 Y92.691 E.01359
G1 X111.016 Y92.757 E.0061
G1 X111.016 Y98.539 E.21533
G1 X111.524 Y98.316 E.02065
G1 X111.524 Y92.983 E.19863
G1 X111.573 Y93.005 E.00203
G1 X112.031 Y93.372 E.02186
G1 X112.031 Y97.703 E.16133
G1 X112.143 Y97.592 E.00589
G1 X112.345 Y97.592 E.00751
G1 X112.539 Y97.331 E.01211
G1 X112.539 Y93.968 E.12526
G1 X112.664 Y94.136 E.00779
G1 X112.96 Y94.871 E.0295
G1 X113.047 Y95.565 E.02605
G1 X113.047 Y96.761 E.04455
G1 X110.51 Y92.204 F9000
G1 F900
G1 X110.99 Y92.295 E.01821
G1 X111.789 Y92.651 E.03258
G1 X112.49 Y93.212 E.03345
G1 X113.026 Y93.933 E.03345
G1 X113.361 Y94.767 E.03346
G1 X113.474 Y95.658 E.03346
G1 X113.356 Y96.549 E.03346
G1 X113.022 Y97.367 E.03293
G1 X112.757 Y97.732 E.01679
G1 X112.547 Y98.003 E.01279
G1 X112.314 Y98.003 E.00868
G1 X112.05 Y98.267 E.01389
G1 X112.05 Y98.436 E.00631
G1 X111.773 Y98.656 E.01318
G1 X110.976 Y99.005 E.03239
G1 X110.532 Y99.09 E.01685
G1 X110.041 Y99.154 E.01844
G1 X109.173 Y99.068 E.0325
G1 X108.371 Y98.77 E.03185
G1 X107.978 Y98.521 E.01734
G1 X107.95 Y98.5 E.00131
G1 X107.95 Y98.267 E.00867
G1 X107.686 Y98.003 E.01389
G1 X107.397 Y98.003 E.01079
G1 X107.022 Y97.562 E.02158
G1 X106.656 Y96.803 E.03136
G1 X106.534 Y96.327 E.01831
G1 X106.473 Y95.884 E.01663
G1 X106.473 Y95.432 E.01685
G1 X106.528 Y94.994 E.01646
G1 X106.642 Y94.551 E.01702
G1 X106.808 Y94.145 E.01631
G1 X107.053 Y93.7 E.01895
G1 X107.576 Y93.084 E.0301
G1 X107.953 Y92.793 E.01772
G1 X108.378 Y92.523 E.01879
G1 X109.187 Y92.226 E.03207
G1 X110.055 Y92.144 E.03249
G1 X110.442 Y92.195 E.01453
G1 E-3.5 F3600
;WIPE_START
G1 F900
G1 X110.055 Y92.144 E-.58525
G1 X109.448 Y92.201 E-.91475
;WIPE_END
G1 Z.6 F9000
G1 X120.534 Y114.682 Z.6
G1 Z.2
G1 E5 F2400
;TYPE:Inner wall
;WIDTH:0.585841
G1 F900
G1 X119.991 Y115.225 E.03397
G1 X100.009 Y115.225 E.88404
G1 X99.466 Y114.682 E.03397
G1 X120.494 Y114.682 E.93031
G1 X121.741 Y114.182 F9000
;WIDTH:0.499999
G1 F900
G1 X120.198 Y115.725 E.08127
G1 X99.802 Y115.725 E.75969
G1 X98.259 Y114.182 E.08127
G1 X121.701 Y114.182 E.87314
G1 X122.25 Y113.703 F9000
;TYPE:Outer wall
G1 F900
G1 X122.25 Y114.35 E.02408
G1 X120.396 Y116.203 E.09763
G1 X99.604 Y116.203 E.77446
G1 X97.75 Y114.35 E.09763
G1 X97.75 Y113.703 E.02408
G1 X122.21 Y113.703 E.91104
G1 E-3.5 F3600
;WIPE_START
G1 F900
G1 X122.25 Y114.35 E-.97153
G1 X122.001 Y114.599 E-.52847
;WIPE_END
G1 Z.6 F9000
G1 X114.686 Y106.329 Z.6
G1 Z.2
G1 E5 F2400
;TYPE:Inner wall
G1 F900
G1 X115.003 Y106.545 E.01427
;WIDTH:0.54292
G1 X115.23 Y106.613 E.00966
;WIDTH:0.58584
G1 X115.457 Y106.682 E.01049
G1 X119.991 Y106.682 E.20059
G1 X120.534 Y107.225 E.03397
;WIDTH:0.585841
G1 X115.457 Y107.225 E.22461
G1 X115.155 Y107.246 E.01338
;WIDTH:0.54292
G1 X114.854 Y107.268 E.01233
;WIDTH:0.499999
G1 X113.686 Y107.268 E.0435
G1 X113.686 Y106.703 E.02102
;WIDTH:0.511227
G1 X113.691 Y106.1 E.02303
;WIDTH:0.548534
G1 X113.71 Y105.798 E.01246
;WIDTH:0.585841
G1 X113.729 Y105.496 E.01338
G1 X113.729 Y100.419 E.22461
G1 X114.271 Y100.962 E.03397
G1 X114.271 Y105.676 E.20855
G1 X114.337 Y105.814 E.00677
;WIDTH:0.548534
G1 X114.403 Y105.952 E.00631
;WIDTH:0.511227
G1 X114.649 Y106.304 E.01638
;WIDTH:0.499999
G1 X114.653 Y106.307 E.00019
G1 X114.959 Y105.962 F9000
G1 F900
G1 X114.972 Y105.981 E.00086
G1 X115.185 Y106.125 E.00957
G1 X115.457 Y106.182 E.01036
G1 X120.198 Y106.182 E.17659
G1 X121.741 Y107.725 E.08127
G1 X113.229 Y107.725 E.31706
G1 X113.229 Y99.212 E.31706
M73 P1 R97
G1 X114.771 Y100.755 E.08127
G1 X114.771 Y105.496 E.17659
G1 X114.828 Y105.768 E.01036
G1 X114.937 Y105.929 E.00722
G1 X115.311 Y105.642 F9000
;TYPE:Outer wall
G1 F900
G1 X115.457 Y105.703 E.0059
G1 X120.396 Y105.703 E.18397
G1 X122.25 Y107.557 E.09763
G1 X122.25 Y108.203 E.02408
G1 X112.75 Y108.203 E.35384
G1 X112.75 Y98.703 E.35384
G1 X113.396 Y98.703 E.02408
G1 X115.25 Y100.557 E.09763
G1 X115.25 Y105.496 E.18397
G1 X115.295 Y105.606 E.00441
G1 X114.48 Y107.13 F9000
;TYPE:Bottom surface
;WIDTH:0.591415
G1 F1200
G1 X113.829 Y106.48 E.04113
G1 E-3.5 F3600
;WIPE_START
G1 F1200
G1 X114.48 Y107.13 E-1.5
;WIPE_END
G1 Z.6 F9000
G1 X106.314 Y107.268 Z.6
G1 Z.2
G1 E5 F2400
;TYPE:Inner wall
;WIDTH:0.499999
G1 F900
G1 X105.75 Y107.268 E.02102
;WIDTH:0.511227
G1 X105.146 Y107.262 E.02303
;WIDTH:0.548534
G1 X104.845 Y107.243 E.01246
;WIDTH:0.585841
G1 X104.543 Y107.225 E.01338
G1 X99.466 Y107.225 E.22461
G1 X100.009 Y106.682 E.03397
G1 X104.723 Y106.682 E.20855
G1 X104.861 Y106.616 E.00677
;WIDTH:0.548534
G1 X104.999 Y106.55 E.00631
;WIDTH:0.511227
G1 X105.351 Y106.304 E.01638
G1 X105.597 Y105.952 E.01638
;WIDTH:0.554054
G1 X105.656 Y105.827 E.00577
;WIDTH:0.596881
G1 X105.716 Y105.702 E.00626
G1 X105.729 Y105.496 E.00931
;WIDTH:0.585841
G1 X105.729 Y100.962 E.20059
G1 X106.271 Y100.419 E.03397
G1 X106.271 Y105.496 E.22461
G1 X106.29 Y105.798 E.01338
;WIDTH:0.548534
G1 X106.309 Y106.1 E.01246
;WIDTH:0.511227
G1 X106.314 Y106.703 E.02303
;WIDTH:0.499999
G1 X106.314 Y107.228 E.01953
G1 X106.771 Y107.725 F9000
G1 F900
G1 X98.259 Y107.725 E.31706
G1 X99.802 Y106.182 E.08127
G1 X104.543 Y106.182 E.17659
G1 X104.815 Y106.125 E.01036
G1 X105.028 Y105.981 E.00957
G1 X105.172 Y105.768 E.00957
G1 X105.229 Y105.496 E.01036
G1 X105.229 Y100.755 E.17659
G1 X106.771 Y99.212 E.08127
G1 X106.771 Y107.685 E.31557
G1 X107.25 Y108.203 F9000
;TYPE:Outer wall
G1 F900
G1 X97.75 Y108.203 E.35384
G1 X97.75 Y107.557 E.02408
G1 X99.604 Y105.703 E.09763
G1 X104.543 Y105.703 E.18397
G1 X104.689 Y105.642 E.0059
G1 X104.75 Y105.496 E.0059
G1 X104.75 Y100.557 E.18397
G1 X106.604 Y98.703 E.09763
G1 X107.25 Y98.703 E.02408
G1 X107.25 Y108.163 E.35235
G1 X106.174 Y106.743 F9000
;TYPE:Bottom surface
;WIDTH:0.585373
G1 F1200
G1 X105.754 Y106.324 E.02625
G1 X105.594 Y106.548 E.01216
G1 X105.37 Y106.707 E.01216
G1 X105.79 Y107.127 E.02624
; stop printing object tailfin_connector_v1-Body.stl id:3152 copy 0
M106 S255
;LAYER_CHANGE
;Z:0.4
;HEIGHT:0.2
;BEFORE_LAYER_CHANGE
;0.4
G92 E0

G1 E-3.5 F3600
;WIPE_START
G1 F1200
G1 X105.37 Y106.707 E-.89054
G1 X105.594 Y106.548 E-.41267
G1 X105.671 Y106.441 E-.19679
;WIPE_END
;_SET_FAN_SPEED_CHANGING_LAYER
; printing object tailfin_connector_v1-Body.stl id:3152 copy 0
M204 S700
G1 Z.8 F9000
G1 X108.866 Y95.646 Z.8
G1 Z.4
G1 E5 F2400
M204 S500
;TYPE:Support
;WIDTH:0.4
G1 F9000
G1 X108.891 Y95.402 E.00716
G1 X109.025 Y95.073 E.01032
G1 X109.199 Y94.854 E.00812
G1 X109.429 Y94.684 E.00834
G1 X109.695 Y94.579 E.00833
G1 X109.987 Y94.546 E.00854
G1 X110.039 Y94.149 E.01164
G1 X110.367 Y94.197 E.00964
G1 X110.73 Y94.352 E.01149
G1 X111.037 Y94.593 E.01135
G1 X111.272 Y94.904 E.01135
G1 X111.419 Y95.265 E.01135
G1 X111.468 Y95.652 E.01135
G1 X111.416 Y96.036 E.01127
G1 X111.233 Y96.443 E.01299
G1 X111.028 Y96.708 E.00974
G1 X110.72 Y96.945 E.01131
G1 X110.317 Y97.104 E.0126
G1 X109.973 Y97.149 E.0101
G1 X109.588 Y97.102 E.01128
G1 X109.187 Y96.932 E.01267
G1 X108.916 Y96.726 E.00992
G1 X108.676 Y96.423 E.01123
G1 X108.503 Y96.006 E.01315
G1 X108.46 Y95.687 E.00934
G1 X108.499 Y95.304 E.01123
G1 X108.676 Y94.869 E.01365
G1 X108.918 Y94.564 E.01133
G1 X109.233 Y94.331 E.01139
G1 X109.597 Y94.187 E.01138
G1 X109.986 Y94.142 E.01141
M204 S700
G1 E-4.6 F3600
;WIPE_START
G1 F9000
G1 X109.597 Y94.187 E-.15684
G1 X109.233 Y94.331 E-.15646
G1 X109.059 Y94.46 E-.0867
;WIPE_END
G1 Z.8
G1 X121.06 Y114.464 Z.8
G1 Z.4
G1 E5 F2400
M204 S500
;TYPE:Inner wall
;WIDTH:0.449999
G1 X120.081 Y115.443 E.04592
G1 X99.919 Y115.443 E.66884
G1 X98.94 Y114.464 E.04592
G1 X121.02 Y114.464 E.73244
M204 S700
G1 X121.896 Y114.057 F9000
M204 S500
G1 F2400
G1 X121.896 Y114.203 E.00486
G1 X120.25 Y115.85 E.07724
G1 X99.75 Y115.85 E.68002
G1 X98.134 Y114.233 E.07582
G1 X98.104 Y114.057 E.00595
G1 X121.856 Y114.057 E.78793
M204 S700
G1 X122.3 Y113.653 F9000
M204 S500
;TYPE:Outer wall
;WIDTH:0.399999
G1 F1500
G1 X122.3 Y114.37 E.02087
G1 X120.417 Y116.253 E.07748
G1 X99.583 Y116.253 E.60622
G1 X97.7 Y114.37 E.07748
G1 X97.7 Y113.653 E.02087
G1 X122.26 Y113.653 E.71463
M204 S700
G1 E-3.5 F3600
;WIPE_START
G1 F1500
G1 X122.3 Y114.37 E-1.07741
G1 X122.101 Y114.569 E-.42259
;WIPE_END
G1 Z.8 F9000
G1 X100.121 Y114.953 Z.8
G1 Z.4
G1 E5 F2400
M204 S500
;TYPE:Internal solid infill
;WIDTH:0.614604
G1 X119.839 Y114.953 E.91853
M204 S700
G1 E-3.5 F3600
;WIPE_START
G1 F2400
G1 X118.839 Y114.953 E-1.5
;WIPE_END
G1 Z.8 F9000
G1 X114.751 Y106.148 Z.8
G1 Z.4
G1 E5 F2400
M204 S500
;TYPE:Inner wall
;WIDTH:0.449999
G1 X114.773 Y106.18 E.00128
G1 X115.073 Y106.384 E.01203
G1 X115.457 Y106.464 E.01302
G1 X120.081 Y106.464 E.1534
G1 X121.06 Y107.443 E.04592
G1 X113.511 Y107.443 E.25043
G1 X113.511 Y99.893 E.25043
G1 X114.489 Y100.872 E.04592
G1 X114.489 Y105.496 E.1534
G1 X114.569 Y105.88 E.01302
G1 X114.729 Y106.115 E.00942
M204 S700
G1 X115.045 Y105.863 F9000
M204 S500
G1 F2400
G1 X115.061 Y105.892 E.00112
G1 X115.234 Y106.011 E.00697
G1 X115.457 Y106.057 E.00754
G1 X120.25 Y106.057 E.15899
G1 X121.866 Y107.673 E.07582
G1 X121.896 Y107.85 E.00595
G1 X113.104 Y107.85 E.29168
G1 X113.104 Y99.057 E.29168
G1 X113.25 Y99.057 E.00486
G1 X114.896 Y100.703 E.07724
G1 X114.896 Y105.577 E.16167
G1 X115.027 Y105.827 E.00936
M204 S700
G1 X115.346 Y105.607 F9000
M204 S500
;TYPE:Outer wall
;WIDTH:0.399999
G1 F1500
G1 X115.457 Y105.653 E.0035
G1 X120.417 Y105.653 E.14433
G1 X122.3 Y107.536 E.07748
G1 X122.3 Y108.253 E.02087
G1 X112.7 Y108.253 E.27934
G1 X112.7 Y98.653 E.27934
G1 X113.417 Y98.653 E.02087
G1 X115.3 Y100.536 E.07748
G1 X115.3 Y105.496 E.14433
G1 X115.331 Y105.57 E.00233
M204 S700
G1 E-3.5 F3600
;WIPE_START
G1 F1500
G1 X115.457 Y105.653 E-.22676
G1 X116.306 Y105.653 E-1.27324
;WIPE_END
G1 Z.8 F9000
G1 X114 Y101.074 Z.8
G1 Z.4
G1 E5 F2400
M204 S500
;TYPE:Internal solid infill
;WIDTH:0.614606
G1 X114 Y105.506 E.20644
M204 S700
G1 X113.893 Y107.06 F9000
M204 S500
;WIDTH:0.399999
G1 F2400
G1 X114.923 Y107.06 E.02999
;WIDTH:0.42206
G1 X115.018 Y107.038 E.00301
;WIDTH:0.466182
G1 X115.113 Y107.016 E.00336
;WIDTH:0.510304
G1 X115.208 Y106.994 E.00371
;WIDTH:0.554426
G1 X115.303 Y106.972 E.00407
;WIDTH:0.598547
G1 X115.399 Y106.95 E.00442
G1 X115.297 Y106.904 E.00505
;WIDTH:0.554426
G1 X115.196 Y106.858 E.00465
;WIDTH:0.510304
G1 X115.094 Y106.811 E.00425
;WIDTH:0.466182
G1 X114.993 Y106.765 E.00384
;WIDTH:0.402188
G1 X114.892 Y106.719 E.00326
G1 X114.481 Y106.425 E.01478
G1 X114.207 Y105.997 E.01485
;WIDTH:0.421409
G1 X114.166 Y105.909 E.00301
;WIDTH:0.464228
G1 X114.126 Y105.82 E.00335
;WIDTH:0.507046
G1 X114.085 Y105.732 E.00369
;WIDTH:0.549865
G1 X114.044 Y105.643 E.00403
;WIDTH:0.592684
G1 X114.003 Y105.555 E.00437
G1 X113.981 Y105.677 E.00557
;WIDTH:0.549865
G1 X113.959 Y105.799 E.00514
;WIDTH:0.507046
G1 X113.937 Y105.922 E.0047
;WIDTH:0.464228
G1 X113.915 Y106.044 E.00427
;WIDTH:0.405445
G1 X113.893 Y106.167 E.00367
G1 X113.893 Y107.02 E.02522
M204 S700
G1 X114.272 Y106.664 F9000
M204 S500
;WIDTH:0.40044
G1 F2400
G1 X114.205 Y106.703 E.00226
G1 X114.275 Y106.738 E.00226
M204 S700
G1 X115.399 Y106.95 F9000
M204 S500
;WIDTH:0.614684
G1 F2400
G1 X119.839 Y106.953 E.20687
M204 S700
G1 E-3.5 F3600
;WIPE_START
G1 F2400
G1 X118.839 Y106.952 E-1.5
;WIPE_END
G1 Z.8 F9000
G1 X106.489 Y107.443 Z.8
G1 Z.4
G1 E5 F2400
M204 S500
;TYPE:Inner wall
;WIDTH:0.449999
G1 X98.94 Y107.443 E.25043
G1 X99.919 Y106.464 E.04592
G1 X104.543 Y106.464 E.1534
G1 X104.927 Y106.384 E.01302
G1 X105.227 Y106.18 E.01203
G1 X105.431 Y105.88 E.01203
G1 X105.511 Y105.496 E.01302
G1 X105.511 Y100.872 E.1534
G1 X106.489 Y99.893 E.04592
G1 X106.489 Y107.403 E.2491
M204 S700
G1 X106.896 Y107.85 F9000
M204 S500
G1 F2400
G1 X98.104 Y107.85 E.29168
G1 X98.104 Y107.703 E.00486
G1 X99.75 Y106.057 E.07724
G1 X104.624 Y106.057 E.16167
G1 X104.939 Y105.892 E.01181
G1 X105.057 Y105.719 E.00697
G1 X105.104 Y105.496 E.00754
G1 X105.104 Y100.703 E.15899
G1 X106.72 Y99.087 E.07582
G1 X106.896 Y99.057 E.00595
G1 X106.896 Y107.81 E.29035
M204 S700
G1 X107.3 Y108.253 F9000
M204 S500
;TYPE:Outer wall
;WIDTH:0.399999
G1 F1500
G1 X97.7 Y108.253 E.27934
G1 X97.7 Y107.536 E.02087
G1 X99.583 Y105.653 E.07748
G1 X104.543 Y105.653 E.14433
G1 X104.654 Y105.607 E.0035
G1 X104.7 Y105.496 E.0035
G1 X104.7 Y100.536 E.14433
G1 X106.583 Y98.653 E.07748
G1 X107.3 Y98.653 E.02087
G1 X107.3 Y108.213 E.27817
M204 S700
G1 E-3.5 F3600
;WIPE_START
G1 F1500
G1 X106.3 Y108.217 E-1.5
;WIPE_END
G1 Z.8 F9000
G1 X100.121 Y106.953 Z.8
G1 Z.4
G1 E5 F2400
M204 S500
;TYPE:Internal solid infill
;WIDTH:0.614606
G1 X104.553 Y106.953 E.20644
M204 S700
G1 X106.107 Y107.06 F9000
M204 S500
;WIDTH:0.399999
G1 F2400
G1 X106.107 Y106.03 E.02999
;WIDTH:0.421893
G1 X106.085 Y105.933 E.00306
;WIDTH:0.46568
G1 X106.064 Y105.836 E.00342
;WIDTH:0.509468
G1 X106.042 Y105.739 E.00377
;WIDTH:0.553255
G1 X106.02 Y105.643 E.00413
;WIDTH:0.597043
G1 X105.998 Y105.546 E.00448
G1 X105.951 Y105.649 E.00511
;WIDTH:0.553255
G1 X105.905 Y105.752 E.00471
;WIDTH:0.509468
G1 X105.858 Y105.855 E.0043
;WIDTH:0.46568
G1 X105.812 Y105.958 E.0039
;WIDTH:0.402201
G1 X105.765 Y106.062 E.00331
G1 X105.471 Y106.472 E.01478
G1 X105.044 Y106.746 E.01486
;WIDTH:0.421409
G1 X104.956 Y106.787 E.00301
;WIDTH:0.464227
G1 X104.867 Y106.828 E.00335
;WIDTH:0.507045
G1 X104.779 Y106.868 E.00369
;WIDTH:0.549864
G1 X104.69 Y106.909 E.00403
;WIDTH:0.592682
G1 X104.601 Y106.95 E.00437
G1 X104.724 Y106.972 E.00557
;WIDTH:0.549864
G1 X104.846 Y106.994 E.00514
;WIDTH:0.507045
G1 X104.969 Y107.016 E.0047
;WIDTH:0.464227
G1 X105.091 Y107.038 E.00427
;WIDTH:0.405445
G1 X105.214 Y107.06 E.00367
G1 X106.067 Y107.06 E.02522
M204 S700
G1 X105.772 Y106.664 F9000
M204 S500
;WIDTH:0.40044
G1 F2400
G1 X105.705 Y106.703 E.00226
G1 X105.775 Y106.738 E.00226
M204 S700
G1 X105.998 Y105.546 F9000
M204 S500
;WIDTH:0.614655
G1 F2400
G1 X106 Y101.114 E.20645
; stop printing object tailfin_connector_v1-Body.stl id:3152 copy 0
;LAYER_CHANGE
;Z:0.6
;HEIGHT:0.2
;BEFORE_LAYER_CHANGE
;0.6
G92 E0

